!!!OTL: Hilf, o Himmel, ich mu&szlig; scheiden (3-73), S. 204
!!!id: P1046
**kern
*clefG2
*k[b-e-]
*g:
{8g
=1
8g
4.dd
8ee-
4dd
=2
4cc
4b-
4cc
=3
2dd
4g
=4
2g
4f}
=5
{4.b-
8a
4b-
=6
4cc
4b-
4cc
=7
4.dd
8cc
4b-
=8
2.a}
=9
{4.g
8a
4b-
=10
2a
4cc
=11
4.dd
8cc
8dd
8g
=12
2g
4f}
=13
{4.g
8a
4b-
=14
4a
4dd
4cc
=15
4.b-
8g
4a
=16
2.g}
==
*-
!!!minrhy: 8
!!!meters: 3/4 ]  ZZ[4
!!!cut: Hilf, o Himmel, ich mu&szlig; scheiden (3-73), S. 204
!!!reg: Lothringen
!!!trd: PINCK, Louis: Verklingende Weisen, Bd3, Metz 1933
!!!rhy1:   X_.XX_  X_X_X_  X__X_  X__X_
!!!rhy2: X_.XX_  X_X_X_  X_.XX_  X__.
!!!key: P1046  08  G 3/4 ]  ZZ[4
!!!mod: HEPTATONIK AEOLISCH]  AMBITUS[7b
!!!kad: -7b2-7b1
!!!akz: 5451_3b452_1251_123b1_
!!!fot: 'a__b__c__d__
!!!for: 'a__b__c__b__
!!!fok: 'Sd_^d_^d_^__
!! PHRAS[VOLLTAKTIG]
!!!fkt: Trennung, Treue
!! LOTH VKL
!! PR[35] 2K[4] 2G[12] 3K[8] 3G[8] 4A[0] 4Ü[0] 5A[0] 6K[0] 6G[0]
!! 7K[0] 7G[0] 8A[0] MEHR[0] SI[31] ABS[26] SR[15] SP[15]
!! ST[6] 2k[8] 2g[23] 3k[4] 3g[0] 4d[0] 4ü[0] 5d[0] 6k[0] 6g[0]
!! 7k[0] 7g[0] 8d[0] mehr[0] si[35] dm[-4] sr[31] sp[4]
!! 1F[15] 2F[67] 3F[19] 4F[0] LF[0] 2P[0] 3P[0] 4P[0] TRI[0] DF[3] AB[27]
!! TF[0] U3K[0] U3[0] U4[0] U4Ü[0] U5[0] U6K[0] U6[0] U7K[0] U7[0]
!! N1[22] N2K[0] N2[15] N3K[0] N3[26] N4[11] N4Ü[0] N5[19] N6K[0] N6[7]
!!!n7k: 0] N7[0] O1[0] O2K[0] O2[0] O3K[0] O3[0] HÖ[0
!!!RNB: symbol: &szlig; = sz ligature (UTF-8: ÃŸ)
